X:325
T: Denis Murphy's Slide #3
S: "Johnny O'Leary of Sliabh Luachra" (#124)
Z: B.Black
L: 1/8
M: 12/8
R: slide
Q: 360
K: G
B3 BAB d2B G2A|B3 d2B A2B G2A|
B2B BAB d2B G2A|Bee e2d e3 ged|
B3 BAB d2B G2A|BG/A/B d2B A2B G2A|
B2B BAB d2B G2A|Bee ged e3 ged||
B2g g2f g2e dBA|Bgg g2f g3-g2a|
b2g agf gee fed|1 B2e ged e3 ged :|2\
B2e ged e2f g3 ||
